svg/LeftHanded/vertical-text.svg

<?xml version="1.0" encoding="UTF-8" standalone="no"?>
<!-- Created with Inkscape (http://www.inkscape.org/) -->

<svg
   xmlns:dc="http://purl.org/dc/elements/1.1/"
   xmlns:cc="http://creativecommons.org/ns#"
   xmlns:rdf="http://www.w3.org/1999/02/22-rdf-syntax-ns#"
   xmlns:svg="http://www.w3.org/2000/svg"
   xmlns="http://www.w3.org/2000/svg"
   xmlns:xlink="http://www.w3.org/1999/xlink"
   version="1.0"
   width="500"
   height="500"
   viewBox="0 0 1000 1000"
   id="page"
   xml:space="preserve"><metadata
     id="metadata14"><rdf:RDF><cc:Work
         rdf:about=""><dc:format>image/svg+xml</dc:format><dc:type
           rdf:resource="http://purl.org/dc/dcmitype/StillImage" /><dc:title></dc:title></cc:Work></rdf:RDF></metadata><defs
     id="defs38"><linearGradient
       id="linearGradient2312"><stop
         id="stop2314"
         style="stop-color:#999999;stop-opacity:1"
         offset="0" /><stop
         id="stop2316"
         style="stop-color:#555555;stop-opacity:1"
         offset="1" /></linearGradient><linearGradient
       x1="156"
       y1="347.785"
       x2="10"
       y2="347.785"
       id="linearGradient1322"
       xlink:href="#linearGradient2312"
       gradientUnits="userSpaceOnUse"
       gradientTransform="matrix(0,-1,1,0,295.215,488.785)" /><linearGradient
       x1="156"
       y1="-84.214996"
       x2="10"
       y2="-84.214996"
       id="linearGradient1325"
       xlink:href="#linearGradient2312"
       gradientUnits="userSpaceOnUse"
       gradientTransform="matrix(0,-1,1,0,295.215,488.785)" /><linearGradient
       x1="156"
       y1="-84.214996"
       x2="10"
       y2="-84.214996"
       id="linearGradient1325-5"
       xlink:href="#linearGradient2312-3"
       gradientUnits="userSpaceOnUse"
       gradientTransform="matrix(0,-1,1,0,40.977712,-7.9723729)" /><linearGradient
       id="linearGradient2312-3"><stop
         id="stop2314-1"
         style="stop-color:#999999;stop-opacity:1"
         offset="0" /><stop
         id="stop2316-8"
         style="stop-color:#555555;stop-opacity:1"
         offset="1" /></linearGradient><linearGradient
       x1="156"
       y1="347.785"
       x2="10"
       y2="347.785"
       id="linearGradient1322-5"
       xlink:href="#linearGradient2312-3"
       gradientUnits="userSpaceOnUse"
       gradientTransform="matrix(0,-1,1,0,295.215,488.785)" /><linearGradient
       id="linearGradient3010"><stop
         id="stop3012"
         style="stop-color:#999999;stop-opacity:1"
         offset="0" /><stop
         id="stop3014"
         style="stop-color:#555555;stop-opacity:1"
         offset="1" /></linearGradient><filter
       x="-0.14709677"
       y="-0.65142858"
       width="1.2941935"
       height="2.3028572"
       color-interpolation-filters="sRGB"
       id="filter3818"><feGaussianBlur
         id="feGaussianBlur3820"
         stdDeviation="34.2" /></filter><filter
       x="-0.65142852"
       y="-0.65142858"
       width="2.3028572"
       height="2.3028572"
       color-interpolation-filters="sRGB"
       id="filter3830"><feGaussianBlur
         id="feGaussianBlur3832"
         stdDeviation="34.2" /></filter><filter
       x="-0.65142858"
       y="-0.65142858"
       width="2.3028572"
       height="2.3028572"
       color-interpolation-filters="sRGB"
       id="filter3834"><feGaussianBlur
         id="feGaussianBlur3836"
         stdDeviation="34.2" /></filter><linearGradient
       x1="156"
       y1="-84.214996"
       x2="10"
       y2="-84.214996"
       id="linearGradient3838"
       xlink:href="#linearGradient2312"
       gradientUnits="userSpaceOnUse"
       gradientTransform="matrix(0,-1,1,0,295.215,488.785)" /><linearGradient
       x1="156"
       y1="347.785"
       x2="10"
       y2="347.785"
       id="linearGradient3840"
       xlink:href="#linearGradient2312"
       gradientUnits="userSpaceOnUse"
       gradientTransform="matrix(0,-1,1,0,295.215,488.785)" /><linearGradient
       x1="156"
       y1="347.785"
       x2="10"
       y2="347.785"
       id="linearGradient3843"
       xlink:href="#linearGradient2312"
       gradientUnits="userSpaceOnUse"
       gradientTransform="matrix(0,-1,1,0,295.215,488.785)" /><linearGradient
       x1="156"
       y1="-84.214996"
       x2="10"
       y2="-84.214996"
       id="linearGradient3846"
       xlink:href="#linearGradient2312"
       gradientUnits="userSpaceOnUse"
       gradientTransform="matrix(0,-1,1,0,295.215,488.785)" /></defs><path
     d="m 284,839.54237 c 34.793,0 63,28.206 63,63 0,34.794 -28.206,63 -63,63 -34.794,0 -63,-28.206 -63,-63 0,-34.794 28.207,-63 63,-63 z"
     transform="matrix(1.2,0,0,1.2,-56.8,-557.26584)"
     id="path1398-9"
     style="opacity:0.15;fill:#111111;fill-opacity:1;stroke:none;filter:url(#filter3834)" /><path
     d="m 970.23729,839.54237 c 34.79301,0 63.00001,28.207 63.00001,63 0,34.794 -28.207,63 -63.00001,63 -34.794,0 -63,-28.206 -63,-63 0,-34.793 28.206,-63 63,-63 z"
     transform="matrix(1.2,0,0,1.2,-448.28475,-557.26584)"
     id="path1404-5"
     style="opacity:0.15;fill:#111111;fill-opacity:1;stroke:none;filter:url(#filter3830)" /><path
     d="m 348.20227,405.78495 301.59067,0"
     id="path1406"
     style="opacity:0.75;fill:none;stroke:#010101;stroke-width:20;stroke-linecap:round;stroke-linejoin:round;stroke-miterlimit:3.13260007;stroke-opacity:1;stroke-dasharray:none" /><path
     d="m 284,342.785 c 34.793,0 63,28.206 63,63 0,34.794 -28.206,63 -63,63 -34.794,0 -63,-28.206 -63,-63 0,-34.794 28.207,-63 63,-63 z"
     id="path1398"
     style="opacity:0.75;fill:url(#linearGradient3846);fill-opacity:1;stroke:#000000;stroke-width:20;stroke-linecap:round;stroke-linejoin:round;stroke-miterlimit:3.13260007" /><path
     d="m 716,342.785 c 34.793,0 63,28.207 63,63 0,34.794 -28.207,63 -63,63 -34.794,0 -63,-28.206 -63,-63 0,-34.793 28.206,-63 63,-63 z"
     id="path1404"
     style="opacity:0.75;fill:url(#linearGradient3843);fill-opacity:1;stroke:#000000;stroke-width:20;stroke-linecap:round;stroke-linejoin:round;stroke-miterlimit:3.13260007" /></svg>

<?xml version="1.0" encoding="UTF-8" standalone="no"?>
<!-- Created with Inkscape (http://www.inkscape.org/) -->
<svg
   xmlns:svg="http://www.w3.org/2000/svg"
   xmlns="http://www.w3.org/2000/svg"
   xmlns:xlink="http://www.w3.org/1999/xlink"
   version="1.0"
   width="500"
   height="500"
   viewBox="0 0 1000 1000"
   id="page"
   xml:space="preserve"><defs
     id="defs38"><linearGradient
       id="linearGradient2312"><stop
         id="stop2314"
         style="stop-color:#999999;stop-opacity:1"
         offset="0" /><stop
         id="stop2316"
         style="stop-color:#555555;stop-opacity:1"
         offset="1" /></linearGradient><linearGradient
       x1="156"
       y1="347.785"
       x2="10"
       y2="347.785"
       id="linearGradient1322"
       xlink:href="#linearGradient2312"
       gradientUnits="userSpaceOnUse"
       gradientTransform="matrix(0,-1,1,0,295.215,488.785)" /><linearGradient
       x1="156"
       y1="-84.214996"
       x2="10"
       y2="-84.214996"
       id="linearGradient1325"
       xlink:href="#linearGradient2312"
       gradientUnits="userSpaceOnUse"
       gradientTransform="matrix(0,-1,1,0,295.215,488.785)" /></defs><path
     d="M 348.20227,405.78495 L 649.79294,405.78495"
     id="path1406"
     style="fill:none;stroke:#010101;stroke-width:20;stroke-linecap:round;stroke-linejoin:round;stroke-miterlimit:3.13260007;stroke-dasharray:none;stroke-opacity:1" /><path
     d="M 284,342.785 C 318.793,342.785 347,370.991 347,405.785 C 347,440.579 318.794,468.785 284,468.785 C 249.206,468.785 221,440.579 221,405.785 C 221,370.991 249.207,342.785 284,342.785 z"
     id="path1398"
     style="fill:url(#linearGradient1325);fill-opacity:1;stroke:#000000;stroke-width:20;stroke-linecap:round;stroke-linejoin:round;stroke-miterlimit:3.13260007" /><path
     d="M 716,342.785 C 750.793,342.785 779,370.992 779,405.785 C 779,440.579 750.793,468.785 716,468.785 C 681.206,468.785 653,440.579 653,405.785 C 653,370.992 681.206,342.785 716,342.785 z"
     id="path1404"
     style="fill:url(#linearGradient1322);fill-opacity:1;stroke:#000000;stroke-width:20;stroke-linecap:round;stroke-linejoin:round;stroke-miterlimit:3.13260007" /></svg>
